src/assets/outline/ArrowBottom.svg

<?xml version="1.0" encoding="UTF-8"?>
<svg width="24" height="24" viewBox="0 0 24 24" xmlns="http://www.w3.org/2000/svg">
 <path d="m12 18.75c-1.42 0-2.72-0.9-3.66-2.53l-2.67-4.63c-0.95-1.63-1.07-3.2-0.36-4.43s2.14-1.91 4.02-1.91h5.34c1.88 0 3.31 0.68 4.02 1.91s0.58 2.81-0.36 4.44l-2.67 4.63c-0.94 1.62-2.24 2.52-3.66 2.52zm-2.67-12c-1.33 0-2.29 0.41-2.72 1.16-0.44 0.75-0.31 1.79 0.35 2.93l2.67 4.63c0.66 1.15 1.5 1.78 2.36 1.78s1.7-0.63 2.36-1.78l2.67-4.63c0.66-1.15 0.79-2.19 0.36-2.94s-1.4-1.16-2.72-1.16h-5.33v0.01z"/>
</svg>

<svg width="24" height="24" viewBox="0 0 24 24"  xmlns="http://www.w3.org/2000/svg">
<path d="M12 18.75C10.58 18.75 9.28 17.85 8.34 16.22L5.67 11.59C4.72 9.96 4.6 8.39 5.31 7.16C6.02 5.93 7.45 5.25 9.33 5.25H14.67C16.55 5.25 17.98 5.93 18.69 7.16C19.4 8.39 19.27 9.97 18.33 11.6L15.66 16.23C14.72 17.85 13.42 18.75 12 18.75ZM9.33 6.75C8 6.75 7.04 7.16 6.61 7.91C6.17 8.66 6.3 9.7 6.96 10.84L9.63 15.47C10.29 16.62 11.13 17.25 11.99 17.25C12.85 17.25 13.69 16.62 14.35 15.47L17.02 10.84C17.68 9.69 17.81 8.65 17.38 7.9C16.95 7.15 15.98 6.74 14.66 6.74H9.33V6.75Z" />
</svg>
